app/assets/images/heroicons/solid/arrow-down-on-square.svg

<svg width="24" height="24" viewBox="0 0 24 24" fill="none" xmlns="http://www.w3.org/2000/svg">
<path d="M12 1.5C12.4142 1.5 12.75 1.83579 12.75 2.25L12.75 7.5H11.25V2.25C11.25 1.83579 11.5858 1.5 12 1.5Z" fill="#0F172A"/>
<path d="M11.25 7.5L11.25 13.1893L9.53033 11.4697C9.23744 11.1768 8.76256 11.1768 8.46967 11.4697C8.17678 11.7626 8.17678 12.2374 8.46967 12.5303L11.4697 15.5303C11.6103 15.671 11.8011 15.75 12 15.75C12.1989 15.75 12.3897 15.671 12.5303 15.5303L15.5303 12.5303C15.8232 12.2374 15.8232 11.7626 15.5303 11.4697C15.2374 11.1768 14.7626 11.1768 14.4697 11.4697L12.75 13.1893V7.5H16.5C18.1569 7.5 19.5 8.84315 19.5 10.5V19.5C19.5 21.1569 18.1569 22.5 16.5 22.5H7.5C5.84315 22.5 4.5 21.1569 4.5 19.5V10.5C4.5 8.84315 5.84315 7.5 7.5 7.5H11.25Z" fill="#0F172A"/>
</svg>

<svg xmlns="http://www.w3.org/2000/svg" viewBox="0 0 24 24" fill="currentColor" aria-hidden="true" data-slot="icon">
  <path d="M12 1.5a.75.75 0 0 1 .75.75V7.5h-1.5V2.25A.75.75 0 0 1 12 1.5ZM11.25 7.5v5.69l-1.72-1.72a.75.75 0 0 0-1.06 1.06l3 3a.75.75 0 0 0 1.06 0l3-3a.75.75 0 1 0-1.06-1.06l-1.72 1.72V7.5h3.75a3 3 0 0 1 3 3v9a3 3 0 0 1-3 3h-9a3 3 0 0 1-3-3v-9a3 3 0 0 1 3-3h3.75Z"/>
</svg>
